X:5984
T:Gan Ainm
R:Reel
S:
H:
N:Pub very noisy - but to my ears the first half is as strange is it is... 
D:Conor Tully (Session Tape)
Z:Adrian Scahill
M:4/4
L:1/8
K:C
Add3 dcAd|c3G EFGE|DA,A,2 FA,A,2|FEDB, CA,G,C|\
1 A,2DE FEDC|A,B,CE FGAc|defg ag (3fga|gcec d4:|2 A,2DE FEDC|A,B,CG ABcg|ecde dcAG|cAGE D4||\
K:G\
d2Ad (3fga fg|ecc2 acgc|d2Ad fgag|egce d4|\
~a3b ag (3efg|fded (3cde Ad|c3d (3efg ed|cAGE D4:||
